assets/icons/server-filled.svg

<?xml version="1.0" encoding="UTF-8" standalone="no"?>
<svg
   viewBox="0 0 24 24"
   height="24"
   width="24"
   version="1.1"
   id="svg1199"
   sodipodi:docname="server-filled.svg"
   inkscape:version="1.2 (1:1.2.1+202207142221+cd75a1ee6d)"
   xmlns:inkscape="http://www.inkscape.org/namespaces/inkscape"
   xmlns:sodipodi="http://sodipodi.sourceforge.net/DTD/sodipodi-0.dtd"
   xmlns="http://www.w3.org/2000/svg"
   xmlns:svg="http://www.w3.org/2000/svg"
   xmlns:rdf="http://www.w3.org/1999/02/22-rdf-syntax-ns#"
   xmlns:cc="http://creativecommons.org/ns#"
   xmlns:dc="http://purl.org/dc/elements/1.1/">
  <metadata
     id="metadata1205">
    <rdf:RDF>
      <cc:Work
         rdf:about="">
        <dc:format>image/svg+xml</dc:format>
        <dc:type
           rdf:resource="http://purl.org/dc/dcmitype/StillImage" />
      </cc:Work>
    </rdf:RDF>
  </metadata>
  <defs
     id="defs1203" />
  <sodipodi:namedview
     pagecolor="#ffffff"
     bordercolor="#666666"
     borderopacity="1"
     objecttolerance="10"
     gridtolerance="10"
     guidetolerance="10"
     inkscape:pageopacity="0"
     inkscape:pageshadow="2"
     inkscape:window-width="1920"
     inkscape:window-height="1043"
     id="namedview1201"
     showgrid="true"
     inkscape:zoom="32"
     inkscape:cx="7.875"
     inkscape:cy="12.75"
     inkscape:window-x="0"
     inkscape:window-y="0"
     inkscape:window-maximized="1"
     inkscape:current-layer="svg1199"
     inkscape:document-rotation="0"
     inkscape:pagecheckerboard="0"
     inkscape:showpageshadow="2"
     inkscape:deskcolor="#d1d1d1">
    <inkscape:grid
       type="xygrid"
       id="grid2431" />
    <inkscape:grid
       type="xygrid"
       id="grid829"
       dotted="true"
       spacingx="0.5"
       spacingy="0.5"
       empspacing="10" />
  </sodipodi:namedview>
  <path
     id="path298"
     style="color:#000000;opacity:1;fill:#808080;fill-opacity:1"
     d="M 5.7871094 15 C 5.1101649 15.005587 4.5365062 15.050105 4.0273438 15.304688 C 3.6879021 15.474408 3.3973381 15.767123 3.2304688 16.142578 C 3.0635992 16.518035 3 16.960289 3 17.501953 L 3 18.501953 C 3 19.043619 3.0635992 19.485873 3.2304688 19.861328 C 3.3973381 20.236785 3.6879021 20.529497 4.0273438 20.699219 C 4.7062272 21.038659 5.500003 21.001953 6.5 21.001953 L 17.5 21.001953 C 18.499997 21.001953 19.293773 21.038661 19.972656 20.699219 C 20.312099 20.529497 20.602661 20.236785 20.769531 19.861328 C 20.936401 19.485873 21 19.043619 21 18.501953 L 21 17.501953 C 21 16.960289 20.9364 16.518035 20.769531 16.142578 C 20.602661 15.767123 20.312099 15.474408 19.972656 15.304688 C 19.293773 14.965246 18.499997 15.001953 17.5 15.001953 L 6.5 15.001953 C 6.2500007 15.001953 6.0127575 14.998138 5.7871094 15 z M 15 18.001953 L 18 18.001953 L 18 19.001953 L 15 19.001953 L 15 18.001953 z " />
  <g
     id="g1012"
     style="opacity:1;fill:#808080;fill-opacity:1;stroke-width:0.800295"
     transform="matrix(1.2495388,0,0,1.2495388,2.0036897,-5.2465396)" />
  <path
     id="path302"
     style="color:#000000;opacity:1;fill:#808080;fill-opacity:1"
     d="M 5.7871094 8.9980469 C 5.1101656 9.0036369 4.5365056 9.0481516 4.0273438 9.3027344 C 3.6879024 9.4724542 3.3973379 9.7651704 3.2304688 10.140625 C 3.0635993 10.516082 3 10.958337 3 11.5 L 3 12.5 C 3 13.041665 3.0635991 13.48392 3.2304688 13.859375 C 3.3225585 14.066578 3.4525625 14.2484 3.6074219 14.398438 C 4.3348335 14.042845 5.0719551 14.005828 5.7792969 14 C 6.0219975 13.998 6.2601747 14.001953 6.5 14.001953 L 17.5 14.001953 C 17.743881 14.001953 17.985886 13.996245 18.228516 13.996094 C 18.947431 13.995645 19.664292 14.041979 20.392578 14.398438 C 20.547437 14.2484 20.677441 14.066578 20.769531 13.859375 C 20.936401 13.48392 21 13.041665 21 12.5 L 21 11.5 C 21 10.958337 20.9364 10.516082 20.769531 10.140625 C 20.602661 9.7651704 20.312099 9.4724542 19.972656 9.3027344 C 19.293774 8.9632927 18.499996 9 17.5 9 L 6.5 9 C 6.2500009 9 6.0127572 8.9961869 5.7871094 8.9980469 z M 15 12 L 18 12 L 18 13 L 15 13 L 15 12 z " />
  <path
     id="path304"
     style="color:#000000;opacity:1;fill:#808080;fill-opacity:1"
     d="M 5.7871094 2.9980469 C 5.1101656 3.0036369 4.5365056 3.0481516 4.0273438 3.3027344 C 3.6879024 3.4724542 3.3973379 3.7651706 3.2304688 4.140625 C 3.0635993 4.5160816 3 4.9583365 3 5.5 L 3 6.5 C 3 7.0416655 3.0635991 7.4839204 3.2304688 7.859375 C 3.3223655 8.0661434 3.4529921 8.2466281 3.6074219 8.3964844 C 4.3348335 8.040892 5.0719551 8.0038746 5.7792969 7.9980469 C 6.0219975 7.9960469 6.2601747 8 6.5 8 L 17.5 8 C 17.743881 8 17.985886 7.9942916 18.228516 7.9941406 C 18.947431 7.9936922 19.664292 8.0400255 20.392578 8.3964844 C 20.547008 8.2466281 20.677634 8.0661434 20.769531 7.859375 C 20.936401 7.4839204 21 7.0416655 21 6.5 L 21 5.5 C 21 4.9583365 20.9364 4.5160816 20.769531 4.140625 C 20.602661 3.7651706 20.312099 3.4724542 19.972656 3.3027344 C 19.293774 2.9632927 18.499996 3 17.5 3 L 6.5 3 C 6.2500009 3 6.0127572 2.9961869 5.7871094 2.9980469 z M 15 6 L 18 6 L 18 7 L 15 7 L 15 6 z " />
</svg>

<svg height="24" width="24" xmlns="http://www.w3.org/2000/svg"><path style="color:#000;opacity:1;fill:gray;fill-opacity:1" d="M5.787 15c-.677.006-1.25.05-1.76.305-.34.17-.63.462-.797.838-.166.375-.23.817-.23 1.359v1c0 .542.064.984.23 1.36.167.375.458.667.797.837.68.34 1.473.303 2.473.303h11c1 0 1.794.037 2.473-.303.34-.17.63-.462.797-.838.166-.375.23-.817.23-1.359v-1c0-.542-.064-.984-.23-1.36a1.72 1.72 0 0 0-.797-.837c-.68-.34-1.473-.303-2.473-.303h-11c-.25 0-.487-.004-.713-.002zM15 18.002h3v1h-3v-1zM5.787 8.998c-.677.006-1.25.05-1.76.305-.34.17-.63.462-.797.838-.166.375-.23.817-.23 1.359v1c0 .542.064.984.23 1.36.093.207.223.388.377.538.728-.355 1.465-.392 2.172-.398.243-.002.481.002.721.002h11c.244 0 .486-.006.729-.006.718 0 1.435.046 2.164.402.154-.15.284-.331.377-.539.166-.375.23-.817.23-1.359v-1c0-.542-.064-.984-.23-1.36a1.72 1.72 0 0 0-.797-.837C19.293 8.963 18.5 9 17.5 9h-11c-.25 0-.487-.004-.713-.002zM15 12h3v1h-3v-1zM5.787 2.998c-.677.006-1.25.05-1.76.305-.34.17-.63.462-.797.838C3.064 4.516 3 4.958 3 5.5v1c0 .542.064.984.23 1.36.092.206.223.387.377.536.728-.355 1.465-.392 2.172-.398.243-.002.481.002.721.002h11c.244 0 .486-.006.729-.006.718 0 1.435.046 2.164.402.154-.15.285-.33.377-.537.166-.375.23-.817.23-1.359v-1c0-.542-.064-.984-.23-1.36a1.72 1.72 0 0 0-.797-.837C19.293 2.963 18.5 3 17.5 3h-11c-.25 0-.487-.004-.713-.002zM15 6h3v1h-3V6z"/></svg>
